icon/lg/section.svg

<?xml version="1.0" encoding="UTF-8"?>
<svg viewBox="0 0 512 171" version="1.1" xmlns="http://www.w3.org/2000/svg" xmlns:xlink="http://www.w3.org/1999/xlink" preserveAspectRatio="xMidYMid" height="1em" width="1em">
  <g>
    <g>
      <path d="M38.7275111,119.450715 L86.698806,129.671448 L86.698806,39.9585553 L38.7275111,50.1398603 L38.7275111,119.450715 Z M100.980671,148.329872 L27.2275432,128.396595 L27.2275432,41.1633138 L100.871147,21.3746071 L100.97629,148.334253 L100.980671,148.329872 Z" fill="#00A86B"/>
      <path d="M70.7302791,0 L0,25.6547856 L0,144.045313 L70.7302791,169.704479 L70.7302791,0 Z M12.6039649,137.092761 L12.6039649,32.6160996 L56.6061279,19.035185 L56.6061279,150.669294 L12.6039649,137.08838 L12.6039649,137.092761 Z" fill="#00A86B"/>
      <path d="M70.7302791,43.3406411 L77.7091168,41.8642643 L77.7091168,27.5999231 L70.7302791,29.4705845 L70.7302791,43.3406411 Z M70.7302791,140.150657 L77.7091168,142.034461 L77.7091168,127.756977 L70.7302791,126.267458 L70.7302791,140.150657 Z" fill="#038754"/>
    </g>
    <path d="M172.039521,44.2387338 C187.631287,44.2387338 197.475259,50.6787159 200.279061,63.2695379 L200.279061,63.2695379 L187.285192,66.778671 C185.778149,58.7396458 181.024829,55.2787031 172.039521,55.2787031 C163.041069,55.2787031 158.375368,59.5851673 158.375368,65.6571503 C158.375368,72.0577039 161.043361,75.2601712 174.817037,77.249118 L174.817037,77.249118 C193.475461,79.7856824 203.139815,85.0822391 203.139815,100.866766 C203.139815,114.557205 191.477752,125.268603 173.927706,125.268603 C154.112713,125.268603 144.82512,116.292057 142.533888,103.355141 L142.533888,103.355141 L156.224326,99.657627 L156.268136,99.657627 C157.262609,107.604652 160.486981,114.228634 173.927706,114.228634 C182.702729,114.228634 188.923664,109.370171 188.923664,102.084668 C188.923664,94.7991644 185.256817,92.0391721 172.368091,89.9407017 C153.376715,87.3997564 144.382645,81.6607248 144.382645,66.8706708 C144.382645,53.9512782 155.488329,44.2387338 172.039521,44.2387338 Z M236.912483,65.2146754 C251.352061,65.2146754 264.34593,73.7136993 264.34593,94.3566894 L264.34593,94.3566894 L264.34593,98.2206786 L221.807001,98.2206786 C222.249476,109.146743 227.804508,115.332631 237.797432,115.332631 C245.910934,115.332631 250.129779,112.130164 251.133014,106.500656 L251.133014,106.500656 L264.126883,106.500656 C262.243079,118.640241 252.355297,125.268603 237.468862,125.268603 C220.365672,125.268603 208.033325,114.119111 208.033325,95.9031613 L208.033325,95.9031613 L208.033325,95.0182114 C208.033325,77.1308326 220.365672,65.2146754 236.912483,65.2146754 Z M422.467204,65.2146754 C439.46087,65.2146754 452.235692,77.0256901 452.235692,94.6896409 L452.235692,94.6896409 L452.235692,95.5702098 C452.235692,113.562731 439.46087,125.268603 422.35768,125.268603 C405.250109,125.268603 392.589192,113.457589 392.589192,95.9031613 L392.589192,95.9031613 L392.589192,95.0182114 C392.589192,77.1308326 405.359632,65.2146754 422.467204,65.2146754 Z M299.564308,65.2102944 C312.444272,65.2102944 324.557572,70.9493261 326.112805,86.843377 L326.112805,86.843377 L313.114556,86.843377 C312.006178,79.1197795 306.893621,75.9173122 299.783355,75.9173122 C290.565857,75.9173122 284.01197,82.9837687 284.01197,94.9043069 L284.01197,94.9043069 L284.01197,95.7936378 C284.01197,108.375698 290.232905,114.999679 300.120687,114.999679 L300.120687,114.999679 C307.230953,114.995299 313.337984,110.802739 314.11341,102.632285 L314.11341,102.632285 L326.445757,102.632285 C325.446902,115.880248 315.335693,125.264222 299.564308,125.264222 C282.903592,125.264222 270.242675,114.4433 270.242675,96.0039229 L270.242675,96.0039229 L270.242675,95.1277349 C270.242675,76.8022621 283.346067,65.2102944 299.564308,65.2102944 Z M347.71084,47.8705332 L347.71084,66.4281958 L360.485662,66.4281958 L360.485662,76.4736916 L347.71084,76.4736916 L347.71084,106.829226 C347.71084,111.906736 350.155405,114.228634 354.37425,114.228634 C357.037862,114.228634 359.044333,113.895683 360.928137,113.120256 L360.928137,113.120256 L360.928137,123.722131 C358.816524,124.497558 355.929484,125.154699 351.820162,125.154699 C340.267623,125.154699 334.270116,118.973192 334.270116,108.047127 L334.270116,108.047127 L334.270116,51.5067136 L347.71084,47.8705332 Z M384.589595,66.4281958 L384.589595,124.164606 L371.14887,124.164606 L371.14887,66.4281958 L384.589595,66.4281958 Z M492.119771,65.2146754 C503.781834,65.2146754 512.000478,71.9437995 512.000478,87.8466123 L512.000478,87.8466123 L512.000478,124.164606 L498.559753,124.164606 L498.559753,89.0601327 C498.559753,80.3332999 495.006811,76.3597872 487.007214,76.3597872 C479.454473,76.3597872 473.347443,81.0035838 473.347443,90.1597487 L473.347443,90.1597487 L473.347443,124.164606 L459.906718,124.164606 L459.906718,66.4325768 L473.347443,66.4325768 L473.347443,75.5887417 C476.124959,69.9592336 482.569322,65.2146754 492.119771,65.2146754 Z M422.467204,75.6982652 C412.469898,75.6982652 406.362867,82.8786262 406.362867,94.7991644 L406.362867,94.7991644 L406.362867,95.6797333 C406.362867,107.490748 412.250851,114.890156 422.467204,114.890156 C432.464509,114.890156 438.466397,107.490748 438.466397,95.6797333 L438.466397,95.6797333 L438.466397,94.9086879 C438.466397,82.9881497 432.464509,75.6982652 422.467204,75.6982652 Z M236.912483,74.9272197 C228.803362,74.9272197 223.362235,80.3332999 222.030429,89.2791797 L222.030429,89.2791797 L251.01911,89.2791797 C250.353207,79.3432074 245.245031,74.9272197 236.912483,74.9272197 Z M384.589595,45.1499694 L384.589595,58.507456 L371.14887,58.507456 L371.14887,45.1499694 L384.589595,45.1499694 Z" fill="#000000"/>
  </g>
</svg>

<svg width="512" height="171" xmlns="http://www.w3.org/2000/svg" preserveAspectRatio="xMidYMid"><path d="m38.728 119.45 47.97 10.221V39.96l-47.97 10.18v69.312Zm62.253 28.88-73.753-19.933V41.163l73.643-19.788.105 126.96.005-.005Z" fill="#00A86B"/><path d="M70.73 0 0 25.655v118.39l70.73 25.66V0ZM12.604 137.093V32.616l44.002-13.58v131.633l-44.002-13.58v.004Z" fill="#00A86B"/><path d="m70.73 43.34 6.98-1.476V27.6l-6.98 1.87v13.87Zm0 96.81 6.98 1.884v-14.277l-6.98-1.49v13.884Z" fill="#038754"/><path d="M172.04 44.239c15.591 0 25.435 6.44 28.24 19.03l-12.995 3.51c-1.507-8.04-6.26-11.5-15.245-11.5-8.999 0-13.665 4.306-13.665 10.378 0 6.4 2.668 9.603 16.442 11.592 18.658 2.537 28.323 7.833 28.323 23.618 0 13.69-11.662 24.402-29.212 24.402-19.815 0-29.103-8.977-31.394-21.914l13.69-3.697h.044c.995 7.947 4.219 14.57 17.66 14.57 8.775 0 14.996-4.858 14.996-12.143 0-7.286-3.667-10.046-16.556-12.144-18.991-2.541-27.985-8.28-27.985-23.07 0-12.92 11.105-22.632 27.657-22.632Zm64.872 20.976c14.44 0 27.434 8.499 27.434 29.142v3.864h-42.539c.442 10.926 5.998 17.112 15.99 17.112 8.114 0 12.333-3.203 13.336-8.832h12.994c-1.884 12.14-11.772 18.768-26.658 18.768-17.103 0-29.436-11.15-29.436-29.366v-.885c0-17.887 12.333-29.803 28.88-29.803Zm185.555 0c16.994 0 29.769 11.81 29.769 29.475v.88c0 17.993-12.775 29.699-29.878 29.699-17.108 0-29.769-11.811-29.769-29.366v-.885c0-17.887 12.77-29.803 29.878-29.803Zm-122.903-.005c12.88 0 24.994 5.74 26.549 21.633h-12.998c-1.109-7.723-6.221-10.926-13.332-10.926-9.217 0-15.771 7.067-15.771 18.987v.89c0 12.582 6.22 19.206 16.109 19.206 7.11-.005 13.217-4.197 13.992-12.368h12.333c-1 13.248-11.11 22.632-26.882 22.632-16.66 0-29.321-10.82-29.321-29.26v-.876c0-18.326 13.103-29.918 29.321-29.918Zm48.147-17.34v18.558h12.775v10.046H347.71v30.355c0 5.078 2.444 7.4 6.663 7.4 2.664 0 4.67-.333 6.554-1.109v10.602c-2.111.776-4.999 1.433-9.108 1.433-11.552 0-17.55-6.182-17.55-17.108v-56.54l13.44-3.636Zm36.879 18.558v57.737h-13.441V66.428h13.44Zm107.53-1.213c11.662 0 19.88 6.729 19.88 22.632v36.318h-13.44V89.06c0-8.727-3.553-12.7-11.553-12.7-7.553 0-13.66 4.644-13.66 13.8v34.005h-13.44V66.433h13.44v9.156c2.778-5.63 9.222-10.374 18.773-10.374Zm-69.653 10.483c-9.997 0-16.104 7.18-16.104 19.101v.88c0 11.812 5.888 19.211 16.104 19.211 9.998 0 16-7.4 16-19.21v-.771c0-11.92-6.002-19.21-16-19.21Zm-185.555-.77c-8.109 0-13.55 5.405-14.882 14.351h28.99c-.667-9.936-5.775-14.352-14.108-14.352ZM384.59 45.15v13.357h-13.441V45.15h13.44Z"/></svg>
